reader/components/icons/assets/rotate.svg

<svg viewBox="0 0 24 24" xmlns="http://www.w3.org/2000/svg">
  <path d="M10.1044 10.6825H0.571052C0.255688 10.6825 0 10.4267 0 10.1111V0.571429C0 0.255857 0.255688 0 0.571052 0H2.85526C3.17062 0 3.42631 0.255857 3.42631 0.571429V4.29105C5.60454 1.87043 8.7685 0.355714 12.2859 0.381286C18.801 0.428619 24.0138 5.69667 24 12.2161C23.9861 18.7266 18.7077 24 12.1983 24C9.14844 24 6.36899 22.8422 4.27447 20.9421C4.03182 20.722 4.02063 20.3443 4.25224 20.1126L5.86865 18.4951C6.08156 18.2821 6.42362 18.2705 6.64914 18.4701C8.12607 19.7779 10.0686 20.5714 12.1983 20.5714C16.827 20.5714 20.5737 16.823 20.5737 12.1905C20.5737 7.55871 16.8278 3.80952 12.1983 3.80952C9.4146 3.80952 6.95032 5.16552 5.4278 7.25395H10.1044C10.4198 7.25395 10.6755 7.50981 10.6755 7.82538V10.1111C10.6755 10.4267 10.4198 10.6825 10.1044 10.6825Z"/>
</svg>

<svg viewBox="0 0 24 24" xmlns="http://www.w3.org/2000/svg"><path d="M10.104 10.682H.571a.571.571 0 01-.571-.57V.571C0 .255.256 0 .571 0h2.284c.316 0 .571.256.571.571v3.72a11.767 11.767 0 018.86-3.91A11.778 11.778 0 0124 12.216C23.986 18.726 18.708 24 12.198 24c-3.05 0-5.829-1.158-7.924-3.058a.573.573 0 01-.022-.83l1.617-1.617a.57.57 0 01.78-.025 8.34 8.34 0 005.55 2.101 8.374 8.374 0 008.375-8.38 8.374 8.374 0 00-8.376-8.381 8.359 8.359 0 00-6.77 3.444h4.676c.316 0 .572.256.572.571v2.286a.571.571 0 01-.572.571z"/></svg>
